images/svg/Logo-4.svg

<svg width="104" height="56" viewBox="0 0 104 56" fill="none" xmlns="http://www.w3.org/2000/svg">
<path d="M24.0782 21.5179H24.0753C21.6897 21.5179 19.7557 23.2616 19.7557 25.4124V25.415C19.7557 27.5658 21.6897 29.3094 24.0753 29.3094H24.0782C26.4638 29.3094 28.3978 27.5658 28.3978 25.415V25.4124C28.3978 23.2616 26.4638 21.5179 24.0782 21.5179Z" fill="#8E8F99"/>
<path d="M55.9614 20.273C55.9547 17.2855 54.6356 14.4221 52.2929 12.3094C49.9502 10.1967 46.7746 9.00678 43.4611 9V9C40.1466 9.00543 36.9696 10.1948 34.6257 12.3076C32.2817 14.4205 30.9619 17.2846 30.9551 20.273V20.273V36.7472C30.9551 36.7472 55.9586 34.2364 55.9614 20.2755V20.273Z" fill="#8E8F99"/>
<path d="M11 42.1543C11.006 44.233 11.9243 46.2251 13.5543 47.6952C15.1843 49.1653 17.3935 49.9939 19.699 50V50C22.004 49.9939 24.2127 49.1657 25.8426 47.6961C27.4725 46.2265 28.3912 44.2351 28.398 42.1569V42.1569V30.6938C28.398 30.6938 11 32.4422 11 42.1543ZM19.699 44.2082C19.2484 44.2082 18.808 44.0877 18.4334 43.862C18.0588 43.6364 17.7668 43.3156 17.5944 42.9403C17.422 42.565 17.3769 42.152 17.4648 41.7536C17.5527 41.3552 17.7696 40.9893 18.0882 40.702C18.4068 40.4148 18.8127 40.2192 19.2546 40.1399C19.6965 40.0607 20.1545 40.1014 20.5707 40.2568C20.987 40.4123 21.3427 40.6755 21.593 41.0133C21.8433 41.351 21.9769 41.7481 21.9769 42.1543C21.9781 42.4247 21.92 42.6926 21.806 42.9427C21.692 43.1927 21.5244 43.4201 21.3128 43.6116C21.1011 43.8031 20.8496 43.9551 20.5727 44.0588C20.2958 44.1625 19.9988 44.2159 19.699 44.2159V44.2082Z" fill="#8E8F99"/>
<path d="M35.6089 40.515V44.7806H34.73V40.515H35.6089ZM37.3081 42.3373V43.0228H35.3687V42.3373H37.3081ZM37.5132 40.515V41.2035H35.3687V40.515H37.5132ZM41.5269 42.5482V42.7504C41.5269 43.0746 41.4829 43.3656 41.395 43.6234C41.3071 43.8812 41.1831 44.101 41.0229 44.2826C40.8628 44.4623 40.6714 44.6 40.4487 44.6957C40.228 44.7914 39.9829 44.8392 39.7134 44.8392C39.4458 44.8392 39.2007 44.7914 38.978 44.6957C38.7573 44.6 38.5659 44.4623 38.4038 44.2826C38.2417 44.101 38.1157 43.8812 38.0259 43.6234C37.938 43.3656 37.894 43.0746 37.894 42.7504V42.5482C37.894 42.222 37.938 41.931 38.0259 41.6752C38.1138 41.4174 38.2378 41.1976 38.3979 41.016C38.5601 40.8344 38.7515 40.6957 38.9722 40.6C39.1948 40.5043 39.4399 40.4564 39.7075 40.4564C39.9771 40.4564 40.2222 40.5043 40.4429 40.6C40.6655 40.6957 40.8569 40.8344 41.0171 41.016C41.1792 41.1976 41.3042 41.4174 41.3921 41.6752C41.4819 41.931 41.5269 42.222 41.5269 42.5482ZM40.6392 42.7504V42.5424C40.6392 42.3158 40.6187 42.1166 40.5776 41.9447C40.5366 41.7728 40.4761 41.6283 40.396 41.5111C40.3159 41.3939 40.2183 41.306 40.103 41.2474C39.9878 41.1869 39.856 41.1566 39.7075 41.1566C39.5591 41.1566 39.4272 41.1869 39.312 41.2474C39.1987 41.306 39.1021 41.3939 39.022 41.5111C38.9438 41.6283 38.8843 41.7728 38.8433 41.9447C38.8022 42.1166 38.7817 42.3158 38.7817 42.5424V42.7504C38.7817 42.975 38.8022 43.1742 38.8433 43.348C38.8843 43.5199 38.9448 43.6654 39.0249 43.7845C39.105 43.9017 39.2026 43.9906 39.3179 44.0511C39.4331 44.1117 39.5649 44.142 39.7134 44.142C39.8618 44.142 39.9937 44.1117 40.1089 44.0511C40.2241 43.9906 40.3208 43.9017 40.3989 43.7845C40.4771 43.6654 40.5366 43.5199 40.5776 43.348C40.6187 43.1742 40.6392 42.975 40.6392 42.7504ZM44.3804 43.6644C44.3804 43.5883 44.3687 43.5199 44.3452 43.4594C44.3237 43.3969 44.2827 43.3402 44.2222 43.2894C44.1616 43.2367 44.0767 43.1849 43.9673 43.1342C43.8579 43.0834 43.7163 43.0306 43.5425 42.976C43.3491 42.9135 43.1655 42.8431 42.9917 42.765C42.8198 42.6869 42.6675 42.5961 42.5347 42.4926C42.4038 42.3871 42.3003 42.265 42.2241 42.1263C42.1499 41.9877 42.1128 41.8265 42.1128 41.6429C42.1128 41.4652 42.1519 41.3041 42.23 41.1595C42.3081 41.0131 42.4175 40.8881 42.5581 40.7845C42.6987 40.6791 42.8647 40.598 43.0562 40.5414C43.2495 40.4847 43.4614 40.4564 43.6919 40.4564C44.0063 40.4564 44.2808 40.5131 44.5151 40.6263C44.7495 40.7396 44.9312 40.8949 45.0601 41.0922C45.1909 41.2894 45.2563 41.515 45.2563 41.7689H44.3833C44.3833 41.6439 44.3569 41.5345 44.3042 41.4408C44.2534 41.3451 44.1753 41.2699 44.0698 41.2152C43.9663 41.1605 43.8354 41.1332 43.6772 41.1332C43.5249 41.1332 43.3979 41.1566 43.2964 41.2035C43.1948 41.2484 43.1187 41.3099 43.0679 41.3881C43.0171 41.4642 42.9917 41.5502 42.9917 41.6459C42.9917 41.7181 43.0093 41.7836 43.0444 41.8422C43.0815 41.9008 43.1362 41.9554 43.2085 42.0062C43.2808 42.057 43.3696 42.1049 43.4751 42.1498C43.5806 42.1947 43.7026 42.2386 43.8413 42.2816C44.0737 42.3519 44.2778 42.431 44.4536 42.5189C44.6313 42.6068 44.7798 42.7054 44.8989 42.8148C45.0181 42.9242 45.1079 43.0482 45.1685 43.1869C45.229 43.3256 45.2593 43.4828 45.2593 43.6586C45.2593 43.8441 45.2231 44.0101 45.1509 44.1566C45.0786 44.3031 44.9741 44.4271 44.8374 44.5287C44.7007 44.6302 44.5376 44.7074 44.3481 44.7601C44.1587 44.8129 43.9468 44.8392 43.7124 44.8392C43.5015 44.8392 43.2935 44.8119 43.0884 44.7572C42.8833 44.7006 42.6968 44.6156 42.5288 44.5023C42.3628 44.389 42.23 44.2445 42.1304 44.0687C42.0308 43.8929 41.981 43.6849 41.981 43.4447H42.8628C42.8628 43.5775 42.8833 43.6898 42.9243 43.7816C42.9653 43.8734 43.0229 43.9476 43.0972 44.0043C43.1733 44.0609 43.2632 44.1019 43.3667 44.1273C43.4722 44.1527 43.5874 44.1654 43.7124 44.1654C43.8647 44.1654 43.9897 44.1439 44.0874 44.101C44.187 44.058 44.2603 43.9984 44.3071 43.9222C44.356 43.8461 44.3804 43.7601 44.3804 43.6644ZM47.7642 40.515V44.7806H46.8882V40.515H47.7642ZM49.0767 40.515V41.2035H45.5962V40.515H49.0767ZM52.4399 44.0951V44.7806H50.1694V44.0951H52.4399ZM50.4565 40.515V44.7806H49.5776V40.515H50.4565ZM52.144 42.2523V42.9203H50.1694V42.2523H52.144ZM52.437 40.515V41.2035H50.1694V40.515H52.437ZM52.9526 40.515H54.5435C54.8696 40.515 55.1499 40.5638 55.3843 40.6615C55.6206 40.7592 55.8022 40.9037 55.9292 41.0951C56.0562 41.2865 56.1196 41.5219 56.1196 41.8011C56.1196 42.0297 56.0806 42.226 56.0024 42.39C55.9263 42.5521 55.8179 42.6879 55.6772 42.7972C55.5386 42.9047 55.3755 42.9906 55.188 43.0551L54.9097 43.2015H53.5269L53.521 42.516H54.5493C54.7036 42.516 54.8315 42.4886 54.9331 42.434C55.0347 42.3793 55.1108 42.3031 55.1616 42.2054C55.2144 42.1078 55.2407 41.9945 55.2407 41.8656C55.2407 41.7289 55.2153 41.6107 55.1646 41.5111C55.1138 41.4115 55.0366 41.3353 54.9331 41.2826C54.8296 41.2299 54.6997 41.2035 54.5435 41.2035H53.8315V44.7806H52.9526V40.515ZM55.3374 44.7806L54.3647 42.8793L55.2935 42.8734L56.2778 44.7396V44.7806H55.3374ZM59.9517 43.2601H58.8647V42.5746H59.9517C60.1196 42.5746 60.2563 42.5472 60.3618 42.4926C60.4673 42.4359 60.5444 42.3578 60.5933 42.2582C60.6421 42.1586 60.6665 42.0463 60.6665 41.9213C60.6665 41.7943 60.6421 41.6761 60.5933 41.5668C60.5444 41.4574 60.4673 41.3695 60.3618 41.3031C60.2563 41.2367 60.1196 41.2035 59.9517 41.2035H59.1694V44.7806H58.2905V40.515H59.9517C60.2856 40.515 60.5718 40.5756 60.8101 40.6967C61.0503 40.8158 61.2339 40.9808 61.3608 41.1918C61.4878 41.4027 61.5513 41.6439 61.5513 41.9154C61.5513 42.1908 61.4878 42.4291 61.3608 42.6302C61.2339 42.8314 61.0503 42.9867 60.8101 43.0961C60.5718 43.2054 60.2856 43.2601 59.9517 43.2601ZM65.02 44.0951V44.7806H62.7495V44.0951H65.02ZM63.0366 40.515V44.7806H62.1577V40.515H63.0366ZM64.7241 42.2523V42.9203H62.7495V42.2523H64.7241ZM65.0171 40.515V41.2035H62.7495V40.515H65.0171ZM67.4985 40.515V44.7806H66.6226V40.515H67.4985ZM68.811 40.515V41.2035H65.3306V40.515H68.811ZM72.1743 44.0951V44.7806H69.9038V44.0951H72.1743ZM70.1909 40.515V44.7806H69.312V40.515H70.1909ZM71.8784 42.2523V42.9203H69.9038V42.2523H71.8784ZM72.1714 40.515V41.2035H69.9038V40.515H72.1714ZM72.687 40.515H74.2778C74.604 40.515 74.8843 40.5638 75.1187 40.6615C75.355 40.7592 75.5366 40.9037 75.6636 41.0951C75.7905 41.2865 75.854 41.5219 75.854 41.8011C75.854 42.0297 75.8149 42.226 75.7368 42.39C75.6606 42.5521 75.5522 42.6879 75.4116 42.7972C75.2729 42.9047 75.1099 42.9906 74.9224 43.0551L74.644 43.2015H73.2612L73.2554 42.516H74.2837C74.438 42.516 74.5659 42.4886 74.6675 42.434C74.769 42.3793 74.8452 42.3031 74.896 42.2054C74.9487 42.1078 74.9751 41.9945 74.9751 41.8656C74.9751 41.7289 74.9497 41.6107 74.8989 41.5111C74.8481 41.4115 74.771 41.3353 74.6675 41.2826C74.564 41.2299 74.4341 41.2035 74.2778 41.2035H73.5659V44.7806H72.687V40.515ZM75.0718 44.7806L74.0991 42.8793L75.0278 42.8734L76.0122 44.7396V44.7806H75.0718ZM78.7515 43.6644C78.7515 43.5883 78.7397 43.5199 78.7163 43.4594C78.6948 43.3969 78.6538 43.3402 78.5933 43.2894C78.5327 43.2367 78.4478 43.1849 78.3384 43.1342C78.229 43.0834 78.0874 43.0306 77.9136 42.976C77.7202 42.9135 77.5366 42.8431 77.3628 42.765C77.1909 42.6869 77.0386 42.5961 76.9058 42.4926C76.7749 42.3871 76.6714 42.265 76.5952 42.1263C76.521 41.9877 76.4839 41.8265 76.4839 41.6429C76.4839 41.4652 76.5229 41.3041 76.6011 41.1595C76.6792 41.0131 76.7886 40.8881 76.9292 40.7845C77.0698 40.6791 77.2358 40.598 77.4272 40.5414C77.6206 40.4847 77.8325 40.4564 78.063 40.4564C78.3774 40.4564 78.6519 40.5131 78.8862 40.6263C79.1206 40.7396 79.3022 40.8949 79.4312 41.0922C79.562 41.2894 79.6274 41.515 79.6274 41.7689H78.7544C78.7544 41.6439 78.728 41.5345 78.6753 41.4408C78.6245 41.3451 78.5464 41.2699 78.4409 41.2152C78.3374 41.1605 78.2065 41.1332 78.0483 41.1332C77.896 41.1332 77.769 41.1566 77.6675 41.2035C77.5659 41.2484 77.4897 41.3099 77.439 41.3881C77.3882 41.4642 77.3628 41.5502 77.3628 41.6459C77.3628 41.7181 77.3804 41.7836 77.4155 41.8422C77.4526 41.9008 77.5073 41.9554 77.5796 42.0062C77.6519 42.057 77.7407 42.1049 77.8462 42.1498C77.9517 42.1947 78.0737 42.2386 78.2124 42.2816C78.4448 42.3519 78.6489 42.431 78.8247 42.5189C79.0024 42.6068 79.1509 42.7054 79.27 42.8148C79.3892 42.9242 79.479 43.0482 79.5396 43.1869C79.6001 43.3256 79.6304 43.4828 79.6304 43.6586C79.6304 43.8441 79.5942 44.0101 79.522 44.1566C79.4497 44.3031 79.3452 44.4271 79.2085 44.5287C79.0718 44.6302 78.9087 44.7074 78.7192 44.7601C78.5298 44.8129 78.3179 44.8392 78.0835 44.8392C77.8726 44.8392 77.6646 44.8119 77.4595 44.7572C77.2544 44.7006 77.0679 44.6156 76.8999 44.5023C76.7339 44.389 76.6011 44.2445 76.5015 44.0687C76.4019 43.8929 76.3521 43.6849 76.3521 43.4447H77.2339C77.2339 43.5775 77.2544 43.6898 77.2954 43.7816C77.3364 43.8734 77.394 43.9476 77.4683 44.0043C77.5444 44.0609 77.6343 44.1019 77.7378 44.1273C77.8433 44.1527 77.9585 44.1654 78.0835 44.1654C78.2358 44.1654 78.3608 44.1439 78.4585 44.101C78.5581 44.058 78.6313 43.9984 78.6782 43.9222C78.7271 43.8461 78.7515 43.7601 78.7515 43.6644Z" fill="#8E8F99"/>
</svg>

<svg xmlns="http://www.w3.org/2000/svg" width="104" height="56" fill="none"><path fill="#8E8F99" d="M24.078 21.518h-.003c-2.385 0-4.32 1.744-4.32 3.894v.003c0 2.15 1.935 3.894 4.32 3.894h.003c2.386 0 4.32-1.743 4.32-3.894v-.003c0-2.15-1.934-3.894-4.32-3.894ZM55.961 20.273c-.006-2.988-1.325-5.85-3.668-7.964C49.95 10.197 46.775 9.007 43.46 9c-3.314.005-6.491 1.195-8.835 3.308-2.344 2.113-3.664 4.977-3.67 7.965v16.474s25.003-2.51 25.005-16.471v-.003ZM11 42.154c.006 2.079.924 4.071 2.554 5.541 1.63 1.47 3.84 2.299 6.145 2.305 2.305-.006 4.514-.834 6.144-2.304 1.63-1.47 2.548-3.46 2.555-5.54V30.695S11 32.442 11 42.154Zm8.699 2.054c-.45 0-.891-.12-1.266-.346a2.115 2.115 0 0 1-.839-.922 1.867 1.867 0 0 1-.13-1.186 2 2 0 0 1 .624-1.052 2.365 2.365 0 0 1 1.167-.562c.442-.08.9-.039 1.316.117.416.155.772.419 1.022.756.25.338.384.735.384 1.141.001.27-.057.539-.171.789-.114.25-.282.477-.493.669a2.31 2.31 0 0 1-.74.447 2.495 2.495 0 0 1-.874.157v-.008ZM35.609 40.515v4.266h-.879v-4.266h.879Zm1.7 1.822v.686h-1.94v-.686h1.94Zm.204-1.822v.688H35.37v-.688h2.144Zm4.014 2.033v.202c0 .325-.044.616-.132.873a1.92 1.92 0 0 1-.372.66c-.16.18-.352.317-.574.413a1.83 1.83 0 0 1-.736.143c-.267 0-.512-.048-.735-.143a1.648 1.648 0 0 1-.574-.413 1.93 1.93 0 0 1-.378-.66 2.696 2.696 0 0 1-.132-.873v-.202c0-.326.044-.617.132-.873a1.92 1.92 0 0 1 .372-.659c.162-.182.353-.32.574-.416.223-.096.468-.144.736-.144.27 0 .514.048.735.144.223.096.414.234.574.416.162.182.287.401.375.66.09.255.135.546.135.872Zm-.888.202v-.208c0-.226-.02-.425-.061-.597a1.295 1.295 0 0 0-.182-.434.784.784 0 0 0-.293-.264.838.838 0 0 0-.395-.09c-.149 0-.28.03-.396.09a.791.791 0 0 0-.29.264 1.333 1.333 0 0 0-.179.434 2.587 2.587 0 0 0-.061.597v.208c0 .225.02.424.061.598.041.172.102.317.182.437.08.117.178.206.293.266.115.06.247.091.395.091.149 0 .28-.03.396-.09a.786.786 0 0 0 .29-.267c.078-.12.138-.265.179-.437a2.61 2.61 0 0 0 .061-.598Zm3.741.914a.563.563 0 0 0-.035-.205.388.388 0 0 0-.123-.17 1.09 1.09 0 0 0-.255-.155 3.587 3.587 0 0 0-.425-.158 5.377 5.377 0 0 1-.55-.211 2.261 2.261 0 0 1-.457-.272 1.228 1.228 0 0 1-.31-.367 1.01 1.01 0 0 1-.112-.483 1 1 0 0 1 .117-.483c.078-.147.188-.272.328-.375.14-.106.307-.187.498-.244.194-.056.405-.085.636-.085.314 0 .589.057.823.17.234.114.416.269.545.466.13.197.196.423.196.677h-.873a.658.658 0 0 0-.079-.328.535.535 0 0 0-.234-.226.835.835 0 0 0-.393-.082.908.908 0 0 0-.38.07.507.507 0 0 0-.23.185.454.454 0 0 0-.075.258c0 .072.017.138.052.196a.594.594 0 0 0 .165.164c.072.051.16.099.266.144.106.045.228.089.366.132.233.07.437.149.613.237.177.088.326.186.445.296.12.11.209.233.27.372.06.139.09.296.09.472a1.024 1.024 0 0 1-.422.87c-.136.101-.3.178-.489.231-.19.053-.401.08-.636.08-.21 0-.419-.028-.624-.083a1.894 1.894 0 0 1-.56-.255 1.285 1.285 0 0 1-.398-.433c-.1-.176-.149-.384-.149-.624h.882c0 .133.02.245.061.337a.563.563 0 0 0 .173.222.743.743 0 0 0 .27.123c.105.026.22.038.345.038a.939.939 0 0 0 .375-.064.463.463 0 0 0 .293-.437Zm3.384-3.149v4.266h-.876v-4.266h.876Zm1.313 0v.688h-3.48v-.688h3.48Zm3.363 3.58v.686h-2.27v-.686h2.27Zm-1.983-3.58v4.266h-.88v-4.266h.88Zm1.687 1.737v.668h-1.975v-.668h1.975Zm.293-1.737v.688h-2.268v-.688h2.268Zm.516 0h1.59c.327 0 .607.049.841.146.237.098.418.243.545.434.127.191.19.427.19.706 0 .229-.038.425-.117.589a1.1 1.1 0 0 1-.325.407 1.685 1.685 0 0 1-.489.258l-.278.147h-1.383l-.006-.686h1.028a.805.805 0 0 0 .384-.082.537.537 0 0 0 .229-.229.703.703 0 0 0 .079-.34.773.773 0 0 0-.076-.354.514.514 0 0 0-.232-.228.855.855 0 0 0-.39-.08h-.712v3.578h-.878v-4.266Zm2.384 4.266-.972-1.902.928-.006.985 1.867v.04h-.94Zm4.615-1.52h-1.087v-.686h1.087a.892.892 0 0 0 .41-.082.527.527 0 0 0 .231-.235.86.86 0 0 0 0-.691.592.592 0 0 0-.231-.264.76.76 0 0 0-.41-.1h-.783v3.578h-.878v-4.266h1.66c.335 0 .62.06.86.182.24.119.423.284.55.495.127.21.19.452.19.723 0 .276-.063.514-.19.715-.127.201-.31.357-.55.466-.24.11-.525.164-.86.164Zm5.068.834v.686h-2.27v-.686h2.27Zm-1.983-3.58v4.266h-.88v-4.266h.88Zm1.687 1.737v.668H62.75v-.668h1.975Zm.293-1.737v.688H62.75v-.688h2.267Zm2.482 0v4.266h-.876v-4.266h.876Zm1.312 0v.688h-3.48v-.688h3.48Zm3.363 3.58v.686h-2.27v-.686h2.27Zm-1.983-3.58v4.266h-.879v-4.266h.879Zm1.687 1.737v.668h-1.974v-.668h1.974Zm.293-1.737v.688h-2.267v-.688h2.267Zm.516 0h1.59c.327 0 .607.049.842.146.236.098.418.243.545.434.126.191.19.427.19.706 0 .229-.04.425-.117.589a1.103 1.103 0 0 1-.325.407 1.687 1.687 0 0 1-.49.258l-.278.147h-1.383l-.006-.686h1.029a.805.805 0 0 0 .383-.082.538.538 0 0 0 .229-.229.704.704 0 0 0 .08-.34.771.771 0 0 0-.077-.354.514.514 0 0 0-.231-.228.855.855 0 0 0-.39-.08h-.712v3.578h-.879v-4.266Zm2.385 4.266-.973-1.902.929-.006.984 1.867v.04h-.94Zm3.68-1.117a.565.565 0 0 0-.036-.205.388.388 0 0 0-.123-.17 1.09 1.09 0 0 0-.255-.155 3.587 3.587 0 0 0-.424-.158 5.377 5.377 0 0 1-.551-.211 2.261 2.261 0 0 1-.457-.272 1.228 1.228 0 0 1-.31-.367 1.01 1.01 0 0 1-.112-.483 1 1 0 0 1 .117-.483c.078-.147.188-.272.328-.375.14-.106.307-.187.498-.244.194-.056.405-.085.636-.085.314 0 .589.057.823.17.235.114.416.269.545.466.131.197.196.423.196.677h-.873a.658.658 0 0 0-.079-.328.535.535 0 0 0-.234-.226.835.835 0 0 0-.393-.082.908.908 0 0 0-.38.07.507.507 0 0 0-.229.185.454.454 0 0 0-.076.258c0 .072.017.138.052.196a.594.594 0 0 0 .165.164c.072.051.16.099.266.144.106.045.228.089.366.132.233.07.437.149.613.237.177.088.326.186.445.296.12.11.209.233.27.372.06.139.09.296.09.472a1.024 1.024 0 0 1-.422.87c-.136.101-.3.178-.489.231-.19.053-.401.08-.635.08-.211 0-.42-.028-.624-.083a1.894 1.894 0 0 1-.56-.255 1.285 1.285 0 0 1-.399-.433c-.1-.176-.149-.384-.149-.624h.882c0 .133.02.245.061.337a.563.563 0 0 0 .173.222.743.743 0 0 0 .27.123c.105.026.22.038.346.038a.939.939 0 0 0 .374-.064.463.463 0 0 0 .293-.437Z"/></svg>
